src/assets/icons/home.svg

<?xml version="1.0" encoding="utf-8"?>
<!-- Generator: Adobe Illustrator 25.3.1, SVG Export Plug-In . SVG Version: 6.00 Build 0)  -->
<svg version="1.1" id="Layer_1" xmlns="http://www.w3.org/2000/svg" xmlns:xlink="http://www.w3.org/1999/xlink" x="0px" y="0px"
	 viewBox="0 0 100 100" style="enable-background:new 0 0 100 100;" xml:space="preserve">
<style type="text/css">
	.st0{fill:#FCD09A;}
	.st1{fill:#3B3F3D;}
	.st2{fill:#E19227;}
	.st3{fill:#2B2A28;}
</style>
<path class="st0" d="M234.2,78.3L234.2,78.3L234.2,78.3z"/>
<g>
	<circle class="st1" cx="50" cy="50" r="50"/>
	<rect x="17.3" y="49.6" class="st0" width="66.7" height="26.7"/>
	<path class="st2" d="M87.2,46.7l-3.1-6.4H16l-3.1,6.4c0,0-2.8,5.1-3.9,7.2c1.3-0.2,2.4-0.8,3.3-1.8c0.4-0.4,1-0.6,1.6-0.4
		c0.6,0.2,1,0.7,1.1,1.2c0.2,1,0.4,1.3,0.5,1.3c0,0,0.8,0.3,3.3-1.6c0.6-0.5,1.5-0.4,2,0.1c1.8,1.8,3.5,2,5.4,0.7
		c0.6-0.4,1.5-0.3,2,0.2c1.8,1.8,3.5,2,5.8,0.5c0.5-0.3,1.1-0.3,1.6,0c2.6,1.6,4.2,0.9,5.2,0.1c0.5-0.4,1.2-0.4,1.8,0
		c1,0.7,2.1-0.1,2.6-0.1s1,0.1,1.3,0.4c1,1.1,1.6,0.9,2.4,0.3h0.1c0.1,0,0.1-0.1,0.2-0.1h0.1c0.1,0,0.1-0.1,0.2-0.1h0.1
		c0.1,0,0.1,0,0.2,0H50c0.1,0,0.1,0,0.2,0h0.1c0.1,0,0.1,0,0.2,0h0.1c0,0,0.1,0,0.1,0.1c0.1,0,0.1,0.1,0.2,0.1H51
		c0.9,0.7,1.5,0.8,2.5-0.3c0.3-0.3,0.8-0.5,1.3-0.5c0.5,0.1,0.9,0.3,1.1,0.7c0,0.1,0.4,0.1,1.5-0.6c0.5-0.4,1.3-0.3,1.8,0.1
		c1,0.7,2.6,1.5,5.2-0.1c0.5-0.3,1.1-0.3,1.6,0c2.3,1.4,4.1,1.3,5.8-0.5c0.5-0.6,1.4-0.6,2-0.2c2,1.3,3.6,1.1,5.4-0.6
		c0.5-0.5,1.4-0.6,2-0.1c2.5,1.9,3.3,1.6,3.3,1.6c0.1-0.1,0.4-0.4,0.5-1.3c0.1-0.6,0.5-1.1,1.1-1.2c0.6-0.2,1.2,0,1.6,0.4
		c0.9,1,2,1.6,3.3,1.8C89.9,51.8,87.1,47.1,87.2,46.7z"/>
	<path class="st0" d="M50.2,13.9C33.3,19.4,20.6,29.6,12.5,44c1.1-0.2,2-0.7,2.8-1.5c0.4-0.4,1-0.6,1.6-0.4c0.6,0.2,1,0.7,1.1,1.2
		c0.1,0.8,0.3,1.1,0.4,1.1c0,0,0.7,0.2,3-1.5c0.6-0.5,1.5-0.4,2,0.1c1.6,1.6,3.1,1.8,4.8,0.6c0.6-0.4,1.5-0.3,2,0.2
		c1.5,1.6,3.1,1.8,5.2,0.5c0.5-0.3,1.1-0.3,1.6,0c2.4,1.4,3.7,0.8,4.6,0.1c0.5-0.4,1.2-0.4,1.8-0.1c0.6,0.4,1,0.5,1.2,0.6
		c0.2-0.4,0.6-0.6,1.1-0.7c0.5-0.1,1,0.1,1.3,0.4c0.9,0.9,1.4,0.8,2.1,0.3l0,0c0.2-0.2,0.5-0.3,0.8-0.3c0,0,0,0,0.1,0
		c0.1,0,0.2,0,0.2,0h0.1c0.1,0,0.1,0,0.2,0c0.2,0.1,0.4,0.2,0.5,0.3l0,0c0.7,0.6,1.2,0.7,2.1-0.2c0.3-0.3,0.8-0.5,1.3-0.5
		c0.5,0.1,0.9,0.3,1.1,0.7c0.1,0,0.4-0.1,1.2-0.6c0.5-0.4,1.3-0.4,1.8,0c0.9,0.7,2.3,1.3,4.7-0.1c0.5-0.3,1.1-0.3,1.6,0
		c2.1,1.3,3.7,1.2,5.2-0.5c0.5-0.6,1.4-0.7,2-0.2c1.7,1.2,3.2,1,4.8-0.6c0.5-0.5,1.4-0.6,2-0.1c2.2,1.7,2.9,1.5,3,1.5
		c0,0,0.3-0.3,0.4-1.1c0.1-0.6,0.5-1.1,1.1-1.2c0.6-0.2,1.2,0,1.6,0.4c0.7,0.8,1.7,1.3,2.8,1.5C79.9,29.6,67.2,19.5,50.2,13.9z"/>
	<path class="st3" d="M51.5,58.8h-2.9c-3,0-5.5,2.5-5.5,5.5v12H57v-12C57,61.3,54.5,58.8,51.5,58.8z"/>
</g>
</svg>

<?xml version="1.0" encoding="UTF-8"?>
<svg width="100px" height="100px" viewBox="0 0 100 100" version="1.1" xmlns="http://www.w3.org/2000/svg" xmlns:xlink="http://www.w3.org/1999/xlink">
    <title>home2</title>
    <g id="Page-1" stroke="none" stroke-width="1" fill="none" fill-rule="evenodd">
        <g id="home2" fill-rule="nonzero">
            <rect id="Rectangle" fill="#FCD09A" x="17.3" y="49.6" width="66.7" height="26.7"></rect>
            <path d="M87.2,46.7 L84.1,40.3 L16,40.3 L12.9,46.7 C12.9,46.7 10.1,51.8 9,53.9 C10.3,53.7 11.4,53.1 12.3,52.1 C12.7,51.7 13.3,51.5 13.9,51.7 C14.5,51.9 14.9,52.4 15,52.9 C15.2,53.9 15.4,54.2 15.5,54.2 C15.5,54.2 16.3,54.5 18.8,52.6 C19.4,52.1 20.3,52.2 20.8,52.7 C22.6,54.5 24.3,54.7 26.2,53.4 C26.8,53 27.7,53.1 28.2,53.6 C30,55.4 31.7,55.6 34,54.1 C34.5,53.8 35.1,53.8 35.6,54.1 C38.2,55.7 39.8,55 40.8,54.2 C41.3,53.8 42,53.8 42.6,54.2 C43.6,54.9 44.7,54.1 45.2,54.1 C45.7,54.1 46.2,54.2 46.5,54.5 C47.5,55.6 48.1,55.4 48.9,54.8 L49,54.8 C49.1,54.8 49.1,54.7 49.2,54.7 L49.3,54.7 C49.4,54.7 49.4,54.6 49.5,54.6 L49.6,54.6 C49.7,54.6 49.7,54.6 49.8,54.6 L50,54.6 C50.1,54.6 50.1,54.6 50.2,54.6 L50.3,54.6 C50.4,54.6 50.4,54.6 50.5,54.6 L50.6,54.6 C50.6,54.6 50.7,54.6 50.7,54.7 C50.8,54.7 50.8,54.8 50.9,54.8 L51,54.8 C51.9,55.5 52.5,55.6 53.5,54.5 C53.8,54.2 54.3,54 54.8,54 C55.3,54.1 55.7,54.3 55.9,54.7 C55.9,54.8 56.3,54.8 57.4,54.1 C57.9,53.7 58.7,53.8 59.2,54.2 C60.2,54.9 61.8,55.7 64.4,54.1 C64.9,53.8 65.5,53.8 66,54.1 C68.3,55.5 70.1,55.4 71.8,53.6 C72.3,53 73.2,53 73.8,53.4 C75.8,54.7 77.4,54.5 79.2,52.8 C79.7,52.3 80.6,52.2 81.2,52.7 C83.7,54.6 84.5,54.3 84.5,54.3 C84.6,54.2 84.9,53.9 85,53 C85.1,52.4 85.5,51.9 86.1,51.8 C86.7,51.6 87.3,51.8 87.7,52.2 C88.6,53.2 89.7,53.8 91,54 C89.9,51.8 87.1,47.1 87.2,46.7 Z" id="Path" fill="#E19227"></path>
            <path d="M50.2,13.9 C33.3,19.4 20.6,29.6 12.5,44 C13.6,43.8 14.5,43.3 15.3,42.5 C15.7,42.1 16.3,41.9 16.9,42.1 C17.5,42.3 17.9,42.8 18,43.3 C18.1,44.1 18.3,44.4 18.4,44.4 C18.4,44.4 19.1,44.6 21.4,42.9 C22,42.4 22.9,42.5 23.4,43 C25,44.6 26.5,44.8 28.2,43.6 C28.8,43.2 29.7,43.3 30.2,43.8 C31.7,45.4 33.3,45.6 35.4,44.3 C35.9,44 36.5,44 37,44.3 C39.4,45.7 40.7,45.1 41.6,44.4 C42.1,44 42.8,44 43.4,44.3 C44,44.7 44.4,44.8 44.6,44.9 C44.8,44.5 45.2,44.3 45.7,44.2 C46.2,44.1 46.7,44.3 47,44.6 C47.9,45.5 48.4,45.4 49.1,44.9 L49.1,44.9 C49.3,44.7 49.6,44.6 49.9,44.6 C49.9,44.6 49.9,44.6 50,44.6 C50.1,44.6 50.2,44.6 50.2,44.6 L50.3,44.6 C50.4,44.6 50.4,44.6 50.5,44.6 C50.7,44.7 50.9,44.8 51,44.9 L51,44.9 C51.7,45.5 52.2,45.6 53.1,44.7 C53.4,44.4 53.9,44.2 54.4,44.2 C54.9,44.3 55.3,44.5 55.5,44.9 C55.6,44.9 55.9,44.8 56.7,44.3 C57.2,43.9 58,43.9 58.5,44.3 C59.4,45 60.8,45.6 63.2,44.2 C63.7,43.9 64.3,43.9 64.8,44.2 C66.9,45.5 68.5,45.4 70,43.7 C70.5,43.1 71.4,43 72,43.5 C73.7,44.7 75.2,44.5 76.8,42.9 C77.3,42.4 78.2,42.3 78.8,42.8 C81,44.5 81.7,44.3 81.8,44.3 C81.8,44.3 82.1,44 82.2,43.2 C82.3,42.6 82.7,42.1 83.3,42 C83.9,41.8 84.5,42 84.9,42.4 C85.6,43.2 86.6,43.7 87.7,43.9 C79.9,29.6 67.2,19.5 50.2,13.9 Z" id="Path" fill="#FCD09A"></path>
            <path d="M51.5,58.8 L48.6,58.8 C45.6,58.8 43.1,61.3 43.1,64.3 L43.1,76.3 L57,76.3 L57,64.3 C57,61.3 54.5,58.8 51.5,58.8 Z" id="Path" fill="#2B2A28"></path>
        </g>
    </g>
</svg>
